X: 27104
T: Miss Lyall
R: strathspey
M: 4/4
K: Adorian
c>B|A<A,~A,>B, C>DE>F|G>A (3GEF G2 {B}c>B|A<A,~A,>B, C>DE>d|(3cBA (3{c}BA^G A>ec>B|
A<A,~A,>B, C>DE>F|G>A (3GEF G2 c>d|(3edc (3Bcd (3cBc (3EF^G|(3ABc (3BA^G A>B:|
^c>d|e<aa>f {a}g>fg>d|e<aa>f {a}g2 (3B^cd|e<aa>f {a}g>fe>^d|(3efg (3dcB A2 ^c>d|
e<aa>f {a}g>fg>d|e<aa>f {a}g>fg>a|(3bag (3fga (3gfg (3B^c^d|(3efg (3dcB (3cec (3BeB||

